Papirus/22x22/places/folder-temp.svg

<?xml version="1.0" encoding="UTF-8" standalone="no"?>
<svg xmlns="http://www.w3.org/2000/svg" height="22" width="22" version="1">
 <path d="m 20.99975,19.500566 0,-9.9959575 c 0,-0.553775 -0.44939,-1.060759 -0.99999,-0.9995838 l -7.9999,0 -1.99998,0 -7.9999,0 C 1,8.5050247 1,9.4629754 1,9.4629754 L 1,19.500416 C 1,20.054181 1.44599,20.5 1.99998,20.5 l 17.99978,0 c 0.55399,0 0.99999,-0.445819 0.99999,-0.999584 z" style="opacity:0.2;fill:#000000;fill-opacity:1"/>
 <path style="fill:#4877b1;fill-opacity:1" d="M 1,17.00004 1,3.00022 C 1,2.44623 1.44939,1.93903 1.99998,2.00023 L 8,2.00023 C 9,2 9,2.80114 9,4.00021 l 11.05126,0 c 0,0 0.94873,0 0.94873,0.99998 l 0,11.99985 c 0,0.554 -0.44599,0.99999 -0.99998,0.99999 l -17.99978,0 c -0.55399,0 -0.99999,-0.44599 -0.99999,-0.99999 z"/>
 <path d="m 20.99975,18.500566 0,-9.9959575 c 0,-0.553775 -0.44939,-1.060759 -0.99999,-0.9995838 l -7.9999,0 -1.99998,0 -7.9999,0 C 1,7.5050247 1,8.4629754 1,8.4629754 L 1,18.500416 C 1,19.054181 1.44599,19.5 1.99998,19.5 l 17.99978,0 c 0.55399,0 0.99999,-0.445819 0.99999,-0.999584 z" style="opacity:0.2;fill:#000000;fill-opacity:1"/>
 <rect rx=".889" ry="1" y="6" x="3" height="8" width="16" style="opacity:1;fill:#dcdcdc;fill-opacity:1;"/>
 <path style="fill:#5294e2;fill-opacity:1" d="m 20.99975,19.000426 0,-9.9959675 c 0,-0.553765 -0.44939,-1.060749 -0.99999,-0.9995738 l -7.9999,0 -1.99998,0 -7.9999,0 C 1,8.0048847 1,8.9628254 1,8.9628254 L 1,19.000276 c 0,0.553765 0.44599,0.999584 0.99998,0.999584 l 17.99978,0 c 0.55399,0 0.99999,-0.445819 0.99999,-0.999584 z"/>
 <path style="opacity:0.1;fill:#ffffff;fill-opacity:1" d="M 2,2 C 1.44941,1.9388 1,2.44601 1,3 L 1,3.5 C 1,2.94601 1.44941,2.4388 2,2.5 l 6,0 c 1,-2.3e-4 1,0.80093 1,2 l 11.05078,0 c 0,0 0.94922,2e-5 0.94922,1 L 21,5 C 21,4.00002 20.05078,4 20.05078,4 L 9,4 C 9,2.80093 9,1.99977 8,2 Z"/>
 <path style="color:#000000;opacity:0.65;fill-rule:evenodd;enable-background:new" d="m 8.4061018,9.9998701 c -0.01185,0 -0.01965,0.012499 -0.03125,0.015499 -0.03955,0.01 -0.07968,0.023 -0.125,0.047 -0.0497,0.026 -0.09901,0.0595 -0.1406198,0.1094 -0.0045,0.0055 -0.0115,0.01 -0.0156,0.0155 -0.0285,0.038 -0.04595,0.08685 -0.0625,0.14059 -0.0045,0.0155 -0.01215,0.03 -0.0156,0.047 -0.01045,0.0405 -0.01635,0.083 -0.0156,0.12499 l 0,5.0001 0.4999798,0 0,-0.49998 0.49998,0 0,-4.0001 2.4999002,0 0,2.0002 1.4999,0 0,4.4998 0.49998,0 0,-0.49998 0.49998,0 c 5e-4,-0.0726 -4.1e-4,-0.36878 0,-0.49998 l 0,-0.49998 c 2.15e-4,-0.17804 -5e-5,-0.28684 0,-0.49998 l 0,-1.4999 c -10e-4,-1.2084 -3.3e-4,-1.1731 0,-1.2187 7.5e-5,-0.0105 0,-0.28124 0,-0.28124 l -1.9999,-2.5001999 -3.5936002,0 z m 5.0938002,7.4999999 0,0.49998 0.49998,0 0,-0.49998 z m -0.49998,0 -0.49998,0 0,0.49998 0.49998,0 z m -0.49998,0 0,-0.49998 -0.49998,0 0,0.49998 z m -0.49998,0 -0.49998,0 0,0.49998 0.49998,0 z m -0.49998,0 0,-0.49998 -0.49998,0 0,0.49998 z m -0.49998,0 -0.49998,0 0,0.49998 0.49998,0 z m -0.49998,0 0,-0.49998 -0.49998,0 0,0.49998 z m -0.49998,0 -0.4999802,0 0,0.49998 0.4999802,0 z m -0.4999802,0 0,-0.49998 -0.49998,0 0,0.49998 z m -0.49998,0 -0.49998,0 0,0.49998 0.49998,0 z m -0.49998,0 0,-0.49998 -0.4999798,0 0,0.49998 z m 0,-0.49998 0.49998,0 0,-0.49998 -0.49998,0 z m 0,-0.49998 0,-0.49998 -0.4999798,0 0,0.49998 z m 0,-0.49998 0.49998,0 0,-0.49998 -0.49998,0 z"/>
</svg>

<svg xmlns="http://www.w3.org/2000/svg" width="22" height="22" version="1">
 <rect style="opacity:0.2" width="20" height="12" x="1" y="8.5" rx="1" ry="1"/>
 <path style="fill:#4877b1" d="M 1,16 C 1,16.554 1.446,17 2,17 H 20 C 20.554,17 21,16.554 21,16 V 5 C 21,4.446 20.554,4 20,4 H 10 V 3 C 10,2.446 9.554,2 9,2 H 2 C 1.446,2 1,2.446 1,3"/>
 <rect style="opacity:0.2" width="20" height="12" x="1" y="7.5" rx="1" ry="1"/>
 <rect style="fill:#dcdcdc" width="16" height="8" x="3" y="6" rx="1" ry="1"/>
 <rect style="fill:#5294e2" width="20" height="12" x="1" y="8" rx="1" ry="1"/>
 <path style="opacity:0.1;fill:#ffffff" d="M 2,2 C 1.446,2 1,2.446 1,3 V 3.5 C 1,2.946 1.446,2.5 2,2.5 H 9 C 9.554,2.5 10,2.946 10,3.5 V 3 C 10,2.446 9.554,2 9,2 Z M 10,4 V 4.5 H 20 C 20.554,4.5 21,4.946 21,5.5 V 5 C 21,4.446 20.554,4 20,4 Z"/>
 <path style="opacity:0.65" d="M 8.5,10 C 8.223,10 8,10.223 8,10.5 V 15.5 H 8.5 V 15 H 9 V 11 H 11.5 V 13 H 13 V 17 17.5 H 13.5 V 17 H 14 V 12 L 12,10 Z M 13.5,17.5 V 18 H 14 V 17.5 Z M 13,17.5 H 12.5 V 18 H 13 Z M 12.5,17.5 V 17 H 12 V 17.5 Z M 12,17.5 H 11.5 V 18 H 12 Z M 11.5,17.5 V 17 H 11 V 17.5 Z M 11,17.5 H 10.5 V 18 H 11 Z M 10.5,17.5 V 17 H 10 V 17.5 Z M 10,17.5 H 9.5 V 18 H 10 Z M 9.5,17.5 V 17 H 9 V 17.5 Z M 9,17.5 H 8.5 V 18 H 9 Z M 8.5,17.5 V 17 H 8 V 17.5 Z M 8.5,17 H 9 V 16.5 H 8.5 Z M 8.5,16.5 V 16 H 8 V 16.5 Z M 8.5,16 H 9 V 15.5 H 8.5 Z"/>
</svg>
